X: 42990
T: Willie's
R: polka
M: 2/4
K: Gmajor
|:D/G/|B>d B/A/G/B/|dd/e/ d2|d/e/g/e/ d/c/B/d/|gg/f/ g/d/e/f/|
gg/f/ g>a|bg d>e|f/g/f/e/ d/c/A/F/|G/B/A/F/ G:|
|:D|GB/d/ g>g|fe f2|A>g f>e|d/e/e/d/ B/d/B/A/|
GB/d/ g>g|fe fg/e/|d/G/G BA/F/|G2 G:|

